build/service/InfoOutline.svg

<svg xmlns="http://www.w3.org/2000/svg" fill="none" viewBox="0 0 24 24" focusable="false"><path d="M0 0H24V24H0z"/><path fill="#74767B" fill-rule="evenodd" d="M3 12C3 7.02944 7.02944 3 12 3C16.9706 3 21 7.02944 21 12C21 16.9706 16.9706 21 12 21C7.02944 21 3 16.9706 3 12ZM12 4.3C7.74741 4.3 4.3 7.74741 4.3 12C4.3 16.2526 7.74741 19.7 12 19.7C16.2526 19.7 19.7 16.2526 19.7 12C19.7 7.74741 16.2526 4.3 12 4.3ZM12 7.34998C12.4142 7.34998 12.75 7.68576 12.75 8.09998C12.75 8.51419 12.4142 8.84998 12 8.84998C11.5858 8.84998 11.25 8.51419 11.25 8.09998C11.25 7.68576 11.5858 7.34998 12 7.34998ZM12 10.2038C12.359 10.2038 12.65 10.4948 12.65 10.8538L12.65 14.7C12.65 15.059 12.941 15.35 13.3 15.35L13.35 15.35C13.709 15.35 14 15.641 14 16C14 16.359 13.709 16.65 13.35 16.65L13.2999 16.65C12.223 16.65 11.35 15.7769 11.35 14.7L11.35 10.8538C11.35 10.4948 11.641 10.2038 12 10.2038Z"/></svg>

<svg xmlns="http://www.w3.org/2000/svg" fill="none" viewBox="0 0 24 24" focusable="false"><path fill="#74767B" fill-rule="evenodd" d="M3 12c0-4.98 4.02-9 9-9 4.97 0 9 4.02 9 9a9 9 0 0 1-9 9c-4.98 0-9-4.03-9-9m9-7.71c-4.26 0-7.71 3.45-7.71 7.71 0 4.25 3.45 7.7 7.71 7.7 4.25 0 7.7-3.45 7.7-7.7 0-4.26-3.45-7.71-7.7-7.71m0 3.05a.749.749 0 1 1 0 1.5c-.42 0-.75-.33-.75-.75 0-.41.33-.75.75-.75m0 2.86c.35 0 .64.29.64.65v3.85c0 .35.3.65.65.65h.06c.35 0 .65.29.65.65 0 .35-.3.65-.65.65h-.06a1.95 1.95 0 0 1-1.94-1.95v-3.85c0-.36.29-.65.65-.65"/></svg>
